X:8
T:The Maids of Jura, Seconds
R:Slow March
C:John Maclellan, Dunoon
M:4/4
L:1/8
K:D
[| {g}A3 {d}A {e}A2d2 | {g}Bd3 {g}A4 | {g}f3 g {ag}a3 d | {g}d4 {g}c2 B2 | 
{g}A3 B {G}A4 | {g}B4 {g}c2{g}Bc | {g}d3 c {g}da3 | {f}g2 f2 {g}e2 {g}de || 
{g}d4 {ag}a4 | {f}g4 f2{g}ed |{g}d4 c3 B | {g}c d3 {gf}g4 | 
e4 {g}f4 | {gf} Hg2 Hf2 {ag}a4 | d3 c {g}d a3 | "Spey tempo - 112" {f}g2 f2 e4 |]

